icons/tokens/0xae7ab96520DE3A18E5e111B5EaAb095312D7fE84/logo.svg

<svg width="32" height="32" viewBox="0 0 32 32" fill="none" xmlns="http://www.w3.org/2000/svg">
<path fill-rule="evenodd" clip-rule="evenodd" d="M32 16C32 7.17152 24.8285 0 16 0C7.17152 0 0 7.17152 0 16C0 24.8285 7.17152 32 16 32C24.8285 32 32 24.8285 32 16Z" fill="white"/>
<path d="M9.00354 14.7914C8.93986 14.889 8.87618 14.9866 8.81282 15.0842C6.66114 18.3862 7.14146 22.7098 9.96834 25.48C11.6314 27.1098 13.8119 27.9245 15.992 27.9251L9.00354 14.7914Z" fill="#00A3FF"/>
<path opacity="0.6" d="M16 9.86688L9.97632 13.311L16 16.7514V9.86688Z" fill="#00A3FF"/>
<path d="M16 4.07488L9.97632 13.3117L16 9.85728V4.07488Z" fill="#00A3FF"/>
<path opacity="0.6" d="M16 18.7827L9.00385 14.7914L16 27.9251V18.7827Z" fill="#00A3FF"/>
<path opacity="0.6" d="M22.9965 14.7914C23.0602 14.889 23.1238 14.9866 23.1872 15.0842C25.3389 18.3862 24.8586 22.7098 22.0317 25.48C20.3686 27.1098 18.1882 27.9245 16.008 27.9251L22.9965 14.7914Z" fill="#00A3FF"/>
<path opacity="0.2" d="M16 9.86688L22.0237 13.311L16 16.7514V9.86688Z" fill="#00A3FF"/>
<path opacity="0.6" d="M16 4.07488L22.0237 13.3117L16 9.85728V4.07488Z" fill="#00A3FF"/>
<path opacity="0.2" d="M16 18.7827L22.9962 14.7914L16 27.9251V18.7827Z" fill="#00A3FF"/>
</svg>

<svg width="32" height="32" fill="none" xmlns="http://www.w3.org/2000/svg"><path fill-rule="evenodd" clip-rule="evenodd" d="M32 16c0-8.828-7.172-16-16-16S0 7.172 0 16s7.172 16 16 16 16-7.172 16-16z" fill="#fff"/><path d="M9.004 14.791l-.191.293C6.66 18.386 7.14 22.71 9.968 25.48a8.585 8.585 0 006.024 2.445L9.004 14.791z" fill="#00A3FF"/><path opacity=".6" d="M16 9.867L9.976 13.31 16 16.751V9.867z" fill="#00A3FF"/><path d="M16 4.075l-6.024 9.237L16 9.857V4.075z" fill="#00A3FF"/><path opacity=".6" d="M16 18.783L9.004 14.79 16 27.925v-9.142zM22.997 14.791l.19.293c2.152 3.302 1.672 7.626-1.155 10.396a8.585 8.585 0 01-6.024 2.445l6.989-13.134z" fill="#00A3FF"/><path opacity=".2" d="M16 9.867l6.024 3.444L16 16.751V9.867z" fill="#00A3FF"/><path opacity=".6" d="M16 4.075l6.024 9.237L16 9.857V4.075z" fill="#00A3FF"/><path opacity=".2" d="M16 18.783l6.996-3.992L16 27.925v-9.142z" fill="#00A3FF"/></svg>
